config.ocio
# OpenColorIO configuration file for Blender
#
# Useful links:
# OCIO docs : 
# https://opencolorio.readthedocs.io/en/latest/index.html
# Config overview : 
# https://opencolorio.readthedocs.io/en/latest/guides/authoring/overview.html
# Config authoring : 
# https://opencolorio.readthedocs.io/en/latest/guides/authoring/authoring.html
#

ocio_profile_version: 2

search_path:
  - aces_luts
  - luts
  - filmic

strictparsing: true
family_separator: /
# Deprecated.
luma: [0.2126, 0.7152, 0.0722]

description: https://github.com/Ginurx/Blender-ACES-Config

# ==================================================

roles:

  # ------------------------------------------------
  # Following color spaces need to be adjusted according to your need.
  # ------------------------------------------------

  # Default color space for byte image
  default_byte: Utility - Raw

  # Default color space for float images such as EXR.
  default_float: Utility - Linear - sRGB

  # Default color space sequencer is working in
  default_sequencer: Utility - sRGB - Texture

  # Distribution of colors in color picker
  color_picking: Utility - sRGB - Texture

  # ------------------------------------------------
  # Don't change color spaces in this section unless you well know what you are doing.
  # ------------------------------------------------

  reference: Utility - Raw

  # Internal scene linear space
  scene_linear: ACES - ACEScg
  rendering: ACES - ACEScg

  # Non-color data
  # We don't need color conversion for non-color data like normal map, tangent map, etc.
  data: Utility - Raw

  # For interop between configs, and to determine XYZ for rendering
  aces_interchange: ACES - ACES2065-1

  # ------------------------------------------------
  # Specified by OCIO, not used in Blender.
  # ------------------------------------------------
  color_timing: ACES - ACEScc

  compositing_log: ACES - ACEScc

  default: ACES - ACES2065-1

  matte_paint: Utility - sRGB - Texture

  texture_paint: ACES - ACEScc

# ==================================================

displays:
  ACES:
    - !<View> {name: sRGB, colorspace: Output - sRGB}
    - !<View> {name: DCDM, colorspace: Output - DCDM}
    - !<View> {name: DCDM P3D60 Limited, colorspace: Output - DCDM (P3D60 Limited)}
    - !<View> {name: DCDM P3D65 Limited, colorspace: Output - DCDM (P3D65 Limited)}
    - !<View> {name: P3-D60, colorspace: Output - P3-D60}
    - !<View> {name: P3-D65 ST2084 1000 nits, colorspace: Output - P3-D65 ST2084 (1000 nits)}
    - !<View> {name: P3-D65 ST2084 2000 nits, colorspace: Output - P3-D65 ST2084 (2000 nits)}
    - !<View> {name: P3-D65 ST2084 4000 nits, colorspace: Output - P3-D65 ST2084 (4000 nits)}
    - !<View> {name: P3-DCI D60 simulation, colorspace: Output - P3-DCI (D60 simulation)}
    - !<View> {name: P3-DCI D65 simulation, colorspace: Output - P3-DCI (D65 simulation)}
    - !<View> {name: P3D65, colorspace: Output - P3D65}
    - !<View> {name: P3D65 D60 simulation, colorspace: Output - P3D65 (D60 simulation)}
    - !<View> {name: P3D65 Rec.709 Limited, colorspace: Output - P3D65 (Rec.709 Limited)}
    - !<View> {name: P3D65 ST2084 108 nits, colorspace: Output - P3D65 ST2084 (108 nits)}
    - !<View> {name: Rec.2020, colorspace: Output - Rec.2020}
    - !<View> {name: Rec.2020 P3D65 Limited, colorspace: Output - Rec.2020 (P3D65 Limited)}
    - !<View> {name: Rec.2020 Rec.709 Limited, colorspace: Output - Rec.2020 (Rec.709 Limited)}
    - !<View> {name: Rec.2020 HLG 1000 nits, colorspace: Output - Rec.2020 HLG (1000 nits)}
    - !<View> {name: Rec.2020 ST2084 1000 nits, colorspace: Output - Rec.2020 ST2084 (1000 nits)}
    - !<View> {name: Rec.2020 ST2084 2000 nits, colorspace: Output - Rec.2020 ST2084 (2000 nits)}
    - !<View> {name: Rec.2020 ST2084 4000 nits, colorspace: Output - Rec.2020 ST2084 (4000 nits)}
    - !<View> {name: Rec.709, colorspace: Output - Rec.709}
    - !<View> {name: Rec.709 D60 sim., colorspace: Output - Rec.709 (D60 sim.)}
    - !<View> {name: sRGB D60 sim., colorspace: Output - sRGB (D60 sim.)}
    - !<View> {name: Raw, colorspace: Utility - Raw}
    - !<View> {name: Log, colorspace: Input - ADX - ADX10}

  # Blender defaults
  Blender sRGB:
    - !<View> {name: Blender Standard, colorspace: Blender sRGB}
    - !<View> {name: Blender Filmic, colorspace: Blender Filmic sRGB}
    - !<View> {name: Blender Filmic Log, colorspace: Blender Filmic Log}
    - !<View> {name: Blender Raw, colorspace: Blender Linear}
    - !<View> {name: Blender False Color, colorspace: Blender False Color}

  # Blender defaults
  Display P3:
    - !<View> {name: Standard, colorspace: Display P3}
    - !<View> {name: AgX, colorspace: AgX Base Display P3}
    - !<View> {name: False Color, colorspace: AgX False Color P3}
    - !<View> {name: Blender Raw, colorspace: Blender Linear}

  # Blender defaults
  Rec.1886:
    - !<View> {name: Standard, colorspace: Rec.1886}
    - !<View> {name: AgX, colorspace: AgX Base Rec.1886}
    - !<View> {name: False Color, colorspace: AgX False Color Rec.709}
    - !<View> {name: Blender Raw, colorspace: Blender Linear}

  Rec.2020:
    - !<View> {name: Standard, colorspace: Rec.2020}
    - !<View> {name: AgX, colorspace: AgX Base Rec.2020}
    - !<View> {name: False Color, colorspace: AgX False Color Rec.2020}
    - !<View> {name: Blender Raw, colorspace: Blender Linear}


# ==================================================
  # Blender defaults
  Blender XYZ:
    - !<View> {name: Blender Standard, colorspace: Blender XYZ}
    - !<View> {name: Blender DCI, colorspace: Blender dci_xyz}
    - !<View> {name: Blender Raw, colorspace: Blender Linear}

  # Blender defaults
  Blender None:
    - !<View> {name: Standard, colorspace: Blender Linear}

active_displays: [ACES, Blender sRGB, Display P3]
active_views:
  # Blender:
  - Blender Standard
  - Blender Filmic
  - Blender Filmic Log
  - Blender Raw
  - Blender False Color
  #- Blender DCI        # dci_xyz is not active in Blender offical config

  # ACES:
  - sRGB
  - DCDM
  - DCDM P3D60 Limited
  - DCDM P3D65 Limited
  - P3-D60
  - P3-D65 ST2084 1000 nits
  - P3-D65 ST2084 2000 nits
  - P3-D65 ST2084 4000 nits
  - P3-DCI D60 simulation
  - P3-DCI D65 simulation
  - P3D65
  - P3D65 D60 simulation
  - P3D65 Rec.709 Limited
  - P3D65 ST2084 108 nits
  - Rec.2020
  - Rec.2020 P3D65 Limited
  - Rec.2020 Rec.709 Limited
  - Rec.2020 HLG 1000 nits
  - Rec.2020 ST2084 1000 nits
  - Rec.2020 ST2084 2000 nits
  - Rec.2020 ST2084 4000 nits
  - Rec.709
  - Rec.709 D60 sim.
  - sRGB D60 sim.
  - Raw
  - Log

colorspaces:

  # Color spaces from Blender configurations
  # 
  # [WANRING]!!
  # Don't directly copy&paste blender definitions to here!
  # Blender defines Rec.709 + linear as reference color space,
  # while ACES defines ACES2065-1 as reference color space.
  # Copy-paste doesn't work correctly.












  #Blender copied
  - !<ColorSpace>
    name: AgX False Color Rec.2020
    aliases: [AgX False Color BT.2020]
    family: AgX
    equalitygroup:
    bitdepth: 32f
    description: |
      A heat-map-like image formed from AgX Base for Rec.2020 displays
    isdata: false
    from_scene_reference: !<GroupTransform>
      children:
        - !<ColorSpaceTransform> {src: Linear CIE-XYZ E, dst: AgX False Color Rec.709}
        - !<ColorSpaceTransform> {src: Rec.1886, dst: Rec.2020}

  #Blender copied
  - !<ColorSpace>
    name: AgX Base Rec.2020
    aliases: [AgX Base BT.2020]
    family: AgX
    equalitygroup:
    bitdepth: 32f
    description: |
      AgX Base Image Encoding for BT.2020 Display
    isdata: false
    from_scene_reference: !<GroupTransform>
      children:
        - !<ColorSpaceTransform> {src: Linear CIE-XYZ E, dst: Linear FilmLight E-Gamut}
        - !<AllocationTransform> {allocation: lg2, vars: [-12.47393, 12.5260688117]}
        - !<FileTransform> {src: AgX_Base_Rec2020.cube, interpolation: tetrahedral}
    to_scene_reference: !<GroupTransform>
      children:
        - !<FileTransform> {src: Inverse_AgX_Base_Rec2020.cube, interpolation: tetrahedral}
        - !<AllocationTransform> {allocation: lg2, vars: [-12.47393, 4.026069], direction: inverse}
        - !<ColorSpaceTransform> {src: Linear CIE-XYZ E, dst: Utility - Linear - Rec.2020, direction: inverse}

  #Blender copied
  - !<ColorSpace>
    name: AgX False Color Rec.709
    aliases: [AgX False Color BT.709, False Colour, False Color]
    family: AgX
    equalitygroup:
    bitdepth: 32f
    description: |
      A heat-map-like image formed from AgX Base for sRGB and Rec.1886 displays
    isdata: false
    from_scene_reference: !<GroupTransform>
      children:
        - !<ColorSpaceTransform> {src: Linear CIE-XYZ E, dst: AgX Base Rec.2020}
        - !<ColorSpaceTransform> {src: Rec.2020, dst: Utility - Linear - Rec.2020}
        - !<MatrixTransform> {matrix: [0.2658180370250449, 0.59846986045365, 0.1357121025213052, 0, 0.2658180370250449, 0.59846986045365, 0.1357121025213052, 0, 0.2658180370250449, 0.59846986045365, 0.1357121025213052, 0, 0, 0, 0, 1]}
        - !<ExponentTransform> {value: 2.5, direction: inverse}
        - !<FileTransform> {src: AgX_False_Color.spi1d, interpolation: linear}

  #Blender copied
  - !<ColorSpace>
    name: AgX Base Rec.1886
    aliases: [AgX Base BT.1886]
    family: AgX
    equalitygroup:
    bitdepth: 32f
    description: |
      AgX Base Image Encoding for Rec.1886 Display
    isdata: false
    from_scene_reference: !<GroupTransform>
      children:
        - !<ColorSpaceTransform> {src: Linear CIE-XYZ E, dst: Linear FilmLight E-Gamut}
        - !<AllocationTransform> {allocation: lg2, vars: [-12.47393, 12.5260688117]}
        - !<FileTransform> {src: AgX_Base_sRGB.cube, interpolation: tetrahedral}
    to_scene_reference: !<GroupTransform>
      children:
       - !<ColorSpaceTransform> {src: Rec.1886, dst: Rec.2020}
       - !<ColorSpaceTransform> {src: AgX Base Rec.2020, dst: Linear CIE-XYZ E}

  #Blender copied
  - !<ColorSpace>
    name: Rec.1886
    aliases: [BT.1886, BT.1886 2.4, BT.1886 EOTF, BT.1886 I-D65, Rec.1886 / Rec.709 Video - Display, rec1886_rec709_video_display, Rec.1886 Rec.709 - Display, rec1886_rec709_display, "Rec1886: 2.4 Gamma - Rec.709"]
    family: Display
    equalitygroup:
    bitdepth: 32f
    description: |
      BT.1886 2.4 Exponent EOTF Display, commonly used for TVs
    isdata: false
    from_scene_reference: !<GroupTransform>
      children:
        - !<ColorSpaceTransform> {src: Linear CIE-XYZ E, dst: Linear Rec.709}
        - !<ExponentTransform> {value: 2.4, direction: inverse}

  #Blender copied
  - !<ColorSpace>
    name: AgX False Color P3
    family: AgX
    equalitygroup:
    bitdepth: 32f
    description: |
      A heat-map-like image formed from AgX Base for Display P3 displays
    isdata: false
    from_scene_reference: !<GroupTransform>
      children:
        - !<ColorSpaceTransform> {src: Linear CIE-XYZ E, dst: AgX False Color Rec.709}
        - !<ColorSpaceTransform> {src: sRGB, dst: Display P3}

  #Blender copied
  - !<ColorSpace>
    name: AgX Base Display P3
    family: AgX
    equalitygroup:
    bitdepth: 32f
    description: |
      AgX Base Image Encoding for Display P3 Display
    isdata: false
    from_scene_reference: !<GroupTransform>
      children:
        - !<ColorSpaceTransform> {src: Linear CIE-XYZ E, dst: Linear FilmLight E-Gamut}
        - !<AllocationTransform> {allocation: lg2, vars: [-12.47393, 12.5260688117]}
        - !<FileTransform> {src: AgX_Base_P3.cube, interpolation: tetrahedral}
        - !<ExponentTransform> {value: 2.4}
        - !<ColorSpaceTransform> {src: Linear DCI-P3 D65, dst: Display P3}
    to_scene_reference: !<GroupTransform>
      children:
       - !<ColorSpaceTransform> {src: Display P3, dst: Rec.2020}
       - !<ColorSpaceTransform> {src: AgX Base Rec.2020, dst: Linear CIE-XYZ E}


  #Blender copied
  - !<ColorSpace>
    name: Display P3
    aliases: [Display P3 2.2, Display P3 I-D65, P3-D65 - Display, p3_d65_display, p3d65_display, AppleP3 sRGB OETF]
    family: Display
    equalitygroup:
    bitdepth: 32f
    description: |
      Apple's Display P3 with sRGB compound (piece-wise) encoding transfer function, common on Mac devices
    isdata: false
    from_scene_reference: !<GroupTransform>
      children:
        - !<ColorSpaceTransform> {src: Linear CIE-XYZ E, dst: Linear DCI-P3 D65}
        - !<ExponentWithLinearTransform> {gamma: 2.4, offset: 0.055, direction: inverse}

  - !<ColorSpace>
    name: Blender Linear
    family: Blender/linear
    equalitygroup: ""
    bitdepth: 32f
    description: |
      Rec. 709 (Full Range), Blender native linear space
    isdata: false
    from_reference: !<GroupTransform>
      children:
        - !<MatrixTransform> {matrix: [0.952552, 0, 9.36786e-05, 0, 0.343966, 0.728166, -0.0721325, 0, 0, 0, 1.00883, 0, 0, 0, 0, 1]}
        - !<MatrixTransform> {matrix: [3.2096, -1.55743, -0.495805, 0, -0.970989, 1.88517, 0.0394894, 0, 0.0597193, -0.210104, 1.14312, 0, 0, 0, 0, 1]}

  - !<ColorSpace>
    name: Non-Color
    family: raw
    description: |
        Color space used for images which contains non-color data (i.e. normal maps)
    equalitygroup:
    bitdepth: 32f
    isdata: true

  # - !<ColorSpace>
  #   name: Blender Raw
  #   family: Blender/raw
  #   equalitygroup: ""
  #   bitdepth: 32f
  #   isdata: true

  - !<ColorSpace>
    name: Blender nuke_rec709
    family: Blender/display
    equalitygroup: ""
    bitdepth: 32f
    description: |
      Rec. 709 (Full Range) Display Space
    isdata: false
    to_reference: !<GroupTransform>
      children:
        - !<FileTransform> {src: rec709.spi1d, interpolation: linear}
        - !<ColorSpaceTransform> {src: Blender Linear, dst: ACES - ACES2065-1}

  - !<ColorSpace>
    name: Blender XYZ
    family: Blender/linear
    equalitygroup: ""
    bitdepth: 32f
    isdata: false
    from_reference: !<GroupTransform>
      children:
        - !<ColorSpaceTransform> {src: ACES - ACES2065-1, dst: Blender Linear}
        - !<FileTransform> {src: srgb_to_xyz.spimtx, interpolation: linear}

  - !<ColorSpace>
    name: Blender dci_xyz
    family: Blender/display
    equalitygroup: ""
    bitdepth: 16f
    description: |
      OpenDCP output LUT with DCI reference white and Gamma 2.6
    isdata: false
    from_reference: !<GroupTransform>
      children:
        - !<ColorSpaceTransform> {src: ACES - ACES2065-1, dst: Blender Linear}
        - !<FileTransform> {src: srgb_to_xyz.spimtx, interpolation: linear}
        - !<FileTransform> {src: dci_xyz.spi1d, interpolation: linear}

  - !<ColorSpace>
    name: Blender lg10
    family: Blender/display
    equalitygroup:
    bitdepth: 10ui
    description: |
      conversion from film log
    isdata: false
    to_reference: !<GroupTransform>
      children:
        - !<FileTransform> {src: lg10.spi1d, interpolation: nearest}
        - !<ColorSpaceTransform> {src: Blender Linear, dst: ACES - ACES2065-1}

  - !<ColorSpace>
    name: Blender sRGB
    family: Blender
    equalitygroup: ""
    bitdepth: 32f
    description: |
      sRGB display space
    isdata: false
    to_reference: !<GroupTransform>
      children:
        - !<FileTransform> {src: srgb.spi1d, interpolation: linear}
        - !<ColorSpaceTransform> {src: Blender Linear, dst: ACES - ACES2065-1}

    from_reference: !<GroupTransform>
      children:
        - !<ColorSpaceTransform> {src: ACES - ACES2065-1, dst: Blender Linear}
        - !<FileTransform> {src: srgb_inv.spi1d, interpolation: linear}

  - !<ColorSpace>
    name: Blender Filmic Log
    family: Blender/log
    equalitygroup: ""
    bitdepth: 32f
    description: |
      Log based filmic shaper with 16.5 stops of latitude, and 25 stops of dynamic range
    isdata: false
    from_reference: !<GroupTransform>
      children:
        - !<ColorSpaceTransform> {src: ACES - ACES2065-1, dst: Blender Linear}                # AP0 to Rec.709
        - !<AllocationTransform> {allocation: lg2, vars: [-12.473931188, 12.526068812]}
        - !<FileTransform> {src: filmic_desat65cube.spi3d, interpolation: best}
        - !<AllocationTransform> {allocation: uniform, vars: [0, 0.66]}

    to_reference: !<GroupTransform>
      children:
        - !<AllocationTransform> {allocation: lg2, vars: [-12.473931188, 4.026068812], direction: inverse}
        - !<ColorSpaceTransform> {src: Blender Linear, dst: ACES - ACES2065-1}

  - !<ColorSpace>
    name: Blender Filmic sRGB
    family: Blender/display
    equalitygroup: ""
    bitdepth: 32f
    description: |
      sRGB display space with Filmic view transform
    isdata: false
    from_reference: !<GroupTransform>
      children:
        - !<ColorSpaceTransform> {src: ACES - ACES2065-1, dst: Blender Filmic Log}
        - !<FileTransform> {src: filmic_to_0-70_1-03.spi1d, interpolation: linear}

  - !<ColorSpace>
    name: Blender False Color
    family: Blender/display
    equalitygroup: ""
    bitdepth: 32f
    description: |
      Filmic false color view transform
    isdata: false
    from_reference: !<GroupTransform>
      children:
        - !<ColorSpaceTransform> {src: ACES - ACES2065-1, dst: Blender Filmic Log}
        - !<MatrixTransform> {matrix: [0.2126729, 0.7151521, 0.0721750, 0, 0.2126729, 0.7151521, 0.0721750, 0, 0.2126729, 0.7151521, 0.0721750, 0, 0, 0, 0, 1]}
        - !<FileTransform> {src: filmic_false_color.spi3d, interpolation: best}

  # Color spaces from ACES configurations
  - !<ColorSpace>
    name: ACES - ACES2065-1
    family: ACES
    equalitygroup: ""
    bitdepth: 32f
    description: |
      The Academy Color Encoding System reference color space
    isdata: false
    allocation: lg2
    allocationvars: [-8, 5, 0.00390625]

  - !<ColorSpace>
    name: ACES - ACEScc
    family: ACES
    equalitygroup: ""
    bitdepth: 32f
    description: |
      The ACEScc color space
      
      ACES Transform ID : ACEScsc.Academy.ACEScc_to_ACES
    isdata: false
    allocation: uniform
    allocationvars: [-0.3584, 1.468]
    to_reference: !<GroupTransform>
      children:
        - !<FileTransform> {src: ACEScc_to_linear.spi1d, interpolation: linear}
        - !<MatrixTransform> {matrix: [0.695452, 0.140679, 0.163869, 0, 0.0447946, 0.859671, 0.0955343, 0, -0.00552588, 0.00402521, 1.0015, 0, 0, 0, 0, 1]}

  - !<ColorSpace>
    name: ACES - ACEScct
    family: ACES
    equalitygroup: ""
    bitdepth: 32f
    description: |
      The ACEScct color space
      
      ACES Transform ID : ACEScsc.Academy.ACEScct_to_ACES
    isdata: false
    allocation: uniform
    allocationvars: [-0.249136, 1.468]
    to_reference: !<GroupTransform>
      children:
        - !<FileTransform> {src: ACEScct_to_linear.spi1d, interpolation: linear}
        - !<MatrixTransform> {matrix: [0.695452, 0.140679, 0.163869, 0, 0.0447946, 0.859671, 0.0955343, 0, -0.00552588, 0.00402521, 1.0015, 0, 0, 0, 0, 1]}

  - !<ColorSpace>
    name: ACES - ACESproxy
    family: ACES
    equalitygroup: ""
    bitdepth: 32f
    description: |
      The ACESproxy color space
      
      ACES Transform ID : ACEScsc.Academy.ACESproxy10i_to_ACES
    isdata: false
    allocation: uniform
    allocationvars: [0, 1]
    to_reference: !<GroupTransform>
      children:
        - !<FileTransform> {src: ACESproxy_to_linear.spi1d, interpolation: linear}
        - !<MatrixTransform> {matrix: [0.695452, 0.140679, 0.163869, 0, 0.0447946, 0.859671, 0.0955343, 0, -0.00552588, 0.00402521, 1.0015, 0, 0, 0, 0, 1]}

  - !<ColorSpace>
    name: ACES - ACEScg
    family: ACES
    equalitygroup: ""
    bitdepth: 32f
    description: |
      The ACEScg color space
      
      ACES Transform ID : ACEScsc.Academy.ACEScg_to_ACES
    isdata: false
    allocation: lg2
    allocationvars: [-8, 5, 0.00390625]
    to_reference: !<MatrixTransform> {matrix: [0.695452, 0.140679, 0.163869, 0, 0.0447946, 0.859671, 0.0955343, 0, -0.00552588, 0.00402521, 1.0015, 0, 0, 0, 0, 1]}

  - !<ColorSpace>
    name: Input - ADX - ADX10
    family: Input/ADX
    equalitygroup: ""
    bitdepth: 10ui
    description: |
      ADX10 color space - used for film scans
      
      ACES Transform ID : ACEScsc.Academy.ADX10_to_ACES
    isdata: false
    allocation: uniform
    allocationvars: [0, 1]
    to_reference: !<GroupTransform>
      children:
        - !<MatrixTransform> {matrix: [2.046, 0, 0, 0, 0, 2.046, 0, 0, 0, 0, 2.046, 0, 0, 0, 0, 1], offset: [-0.19, -0.19, -0.19, 0]}
        - !<MatrixTransform> {matrix: [0.75573, 0.22197, 0.0223, 0, 0.05901, 0.96928, -0.02829, 0, 0.16134, 0.07406, 0.7646, 0, 0, 0, 0, 1]}
        - !<FileTransform> {src: ADX_CID_to_RLE.spi1d, interpolation: linear}
        - !<LogTransform> {base: 10, direction: inverse}
        - !<MatrixTransform> {matrix: [0.72286, 0.1263, 0.15084, 0, 0.11923, 0.76418, 0.11659, 0, 0.01427, 0.08213, 0.90359, 0, 0, 0, 0, 1]}

  - !<ColorSpace>
    name: Input - ADX - ADX16
    family: Input/ADX
    equalitygroup: ""
    bitdepth: 16ui
    description: |
      ADX16 color space - used for film scans
      
      ACES Transform ID : ACEScsc.Academy.ADX16_to_ACES
    isdata: false
    allocation: uniform
    allocationvars: [0, 1]
    to_reference: !<GroupTransform>
      children:
        - !<MatrixTransform> {matrix: [8.19188, 0, 0, 0, 0, 8.19188, 0, 0, 0, 0, 8.19188, 0, 0, 0, 0, 1], offset: [-0.19, -0.19, -0.19, 0]}
        - !<MatrixTransform> {matrix: [0.75573, 0.22197, 0.0223, 0, 0.05901, 0.96928, -0.02829, 0, 0.16134, 0.07406, 0.7646, 0, 0, 0, 0, 1]}
        - !<FileTransform> {src: ADX_CID_to_RLE.spi1d, interpolation: linear}
        - !<LogTransform> {base: 10, direction: inverse}
        - !<MatrixTransform> {matrix: [0.72286, 0.1263, 0.15084, 0, 0.11923, 0.76418, 0.11659, 0, 0.01427, 0.08213, 0.90359, 0, 0, 0, 0, 1]}

  - !<ColorSpace>
    name: Input - ARRI - V3 LogC (EI160) - Wide Gamut
    family: Input/ARRI
    equalitygroup: ""
    bitdepth: 32f
    description: |
      V3 LogC (EI160) - Wide Gamut
      
      ACES Transform ID : IDT.ARRI.Alexa-v3-logC-EI160.a1.v1
    isdata: false
    allocation: uniform
    allocationvars: [0, 1]
    to_reference: !<GroupTransform>
      children:
        - !<FileTransform> {src: V3_LogC_160_to_linear.spi1d, interpolation: linear}
        - !<MatrixTransform> {matrix: [0.680206, 0.236137, 0.083658, 0, 0.085415, 1.01747, -0.102886, 0, 0.002057, -0.062563, 1.06051, 0, 0, 0, 0, 1]}

  - !<ColorSpace>
    name: Input - ARRI - V3 LogC (EI200) - Wide Gamut
    family: Input/ARRI
    equalitygroup: ""
    bitdepth: 32f
    description: |
      V3 LogC (EI200) - Wide Gamut
      
      ACES Transform ID : IDT.ARRI.Alexa-v3-logC-EI200.a1.v1
    isdata: false
    allocation: uniform
    allocationvars: [0, 1]
    to_reference: !<GroupTransform>
      children:
        - !<FileTransform> {src: V3_LogC_200_to_linear.spi1d, interpolation: linear}
        - !<MatrixTransform> {matrix: [0.680206, 0.236137, 0.083658, 0, 0.085415, 1.01747, -0.102886, 0, 0.002057, -0.062563, 1.06051, 0, 0, 0, 0, 1]}

  - !<ColorSpace>
    name: Input - ARRI - V3 LogC (EI250) - Wide Gamut
    family: Input/ARRI
    equalitygroup: ""
    bitdepth: 32f
    description: |
      V3 LogC (EI250) - Wide Gamut
      
      ACES Transform ID : IDT.ARRI.Alexa-v3-logC-EI250.a1.v1
    isdata: false
    allocation: uniform
    allocationvars: [0, 1]
    to_reference: !<GroupTransform>
      children:
        - !<FileTransform> {src: V3_LogC_250_to_linear.spi1d, interpolation: linear}
        - !<MatrixTransform> {matrix: [0.680206, 0.236137, 0.083658, 0, 0.085415, 1.01747, -0.102886, 0, 0.002057, -0.062563, 1.06051, 0, 0, 0, 0, 1]}

  - !<ColorSpace>
    name: Input - ARRI - V3 LogC (EI320) - Wide Gamut
    family: Input/ARRI
    equalitygroup: ""
    bitdepth: 32f
    description: |
      V3 LogC (EI320) - Wide Gamut
      
      ACES Transform ID : IDT.ARRI.Alexa-v3-logC-EI320.a1.v1
    isdata: false
    allocation: uniform
    allocationvars: [0, 1]
    to_reference: !<GroupTransform>
      children:
